Obsidian-SemiLight/actions/16s/snap-page.svg

<svg viewBox="0 0 16 16" xmlns="http://www.w3.org/2000/svg"><path d="m3 2v12h7l3-3v-9zm1 1h8v7h-3v3h-5z" fill="#4d4d4d"/></svg>

<svg xmlns="http://www.w3.org/2000/svg" viewBox="0 0 16 16">
  <defs id="defs3051">
    <style type="text/css" id="current-color-scheme">
      .ColorScheme-Text {
        color:#4d4d4d;
      }
      </style>
  </defs>
 <path style="fill:currentColor;fill-opacity:1;stroke:none" 
     d="M 3 2 L 3 14 L 10 14 L 13 11 L 13 2 L 3 2 z M 4 3 L 12 3 L 12 10 L 9 10 L 9 13 L 4 13 L 4 3 z "
     class="ColorScheme-Text"
     />
</svg>
